svgs/whatsappcleaner.svg

<svg width="192" height="192" viewBox="0 0 192 192" fill="none" xmlns="http://www.w3.org/2000/svg">
<path d="M39.7769 140.011L49.195 156.374C50.2546 158.215 52.2129 159.349 54.3322 159.349H72.0741C75.3502 159.349 78.006 156.685 78.006 153.399V134.557C78.006 131.271 75.3502 128.607 72.0741 128.607H46.341M39.7769 140.011L23.7947 112.244C22.7351 110.403 22.7351 108.135 23.7947 106.294L37.8216 81.9236M39.7769 140.011L46.341 128.607M46.341 128.607L64.3635 97.2948M158.787 128.607L168.205 112.244C169.265 110.403 169.265 108.135 168.205 106.294L159.273 90.7751C157.635 87.9292 154.007 86.9541 151.17 88.5972L134.902 98.0183C132.065 99.6613 131.093 103.3 132.731 106.146L145.659 128.607M158.787 128.607L142.805 156.374C141.745 158.215 139.787 159.349 137.668 159.349H109.347M158.787 128.607H145.659M145.659 128.607H109.347M84.2987 22H75.7369C73.6177 22 71.6594 23.1341 70.5998 24.9751L56.6058 49.2881C54.9678 52.134 55.9398 55.773 58.777 57.4161L75.0446 66.8372C77.8818 68.4803 81.5096 67.5052 83.1477 64.6593L96 42.3297M84.2987 22H116.263C118.382 22 120.341 23.1341 121.4 24.9751L140.522 58.1969M84.2987 22L96 42.3297M96 42.3297L113.98 73.5682M140.522 58.1969L133.387 70.5931C132.327 72.4341 130.369 73.5682 128.25 73.5682H113.98M140.522 58.1969L146.654 47.5432M109.347 128.607L102.212 141.003C101.152 142.844 101.152 145.112 102.212 146.953L109.347 159.349M109.347 128.607L115.477 117.956M109.347 159.349L115.477 170M64.3635 97.2948L57.2285 84.8987C56.1689 83.0577 54.2107 81.9236 52.0914 81.9236H37.8216M64.3635 97.2948L70.4925 107.943M37.8216 81.9236H25.5634M113.98 73.5682H101.716" stroke="black" stroke-width="12" stroke-linecap="round" stroke-linejoin="round"/>
</svg>

<svg xmlns="http://www.w3.org/2000/svg" width="192" height="192" fill="none" viewBox="0 0 192 192"><path stroke="#000" stroke-linecap="round" stroke-linejoin="round" stroke-width="12" d="m39.777 140.011 9.418 16.363a5.93 5.93 0 0 0 5.137 2.975h17.742c3.276 0 5.932-2.664 5.932-5.95v-18.842c0-3.286-2.656-5.95-5.932-5.95H46.341m-6.564 11.404-15.982-27.767a5.97 5.97 0 0 1 0-5.95l14.027-24.37m1.955 58.087 6.564-11.404m0 0 18.023-31.312m94.423 31.312 9.418-16.363a5.96 5.96 0 0 0 0-5.95l-8.932-15.519a5.92 5.92 0 0 0-8.103-2.178l-16.268 9.421c-2.837 1.643-3.809 5.282-2.171 8.128l12.928 22.461m13.128 0-15.982 27.767a5.93 5.93 0 0 1-5.137 2.975h-28.321m49.44-30.742h-13.128m0 0h-36.312M84.299 22h-8.562a5.93 5.93 0 0 0-5.137 2.975L56.606 49.288c-1.638 2.846-.666 6.485 2.171 8.128l16.268 9.421a5.92 5.92 0 0 0 8.103-2.178L96 42.33M84.299 22h31.964a5.93 5.93 0 0 1 5.137 2.975l19.122 33.222M84.299 22 96 42.33m0 0 17.98 31.238m26.542-15.371-7.135 12.396a5.93 5.93 0 0 1-5.137 2.975h-14.27m26.542-15.371 6.132-10.654m-37.307 81.064-7.135 12.396a5.96 5.96 0 0 0 0 5.95l7.135 12.396m0-30.742 6.13-10.651m-6.13 41.393 6.13 10.651M64.364 97.295l-7.136-12.396a5.93 5.93 0 0 0-5.137-2.975h-14.27m26.543 15.37 6.129 10.649m-32.671-26.02H25.563m88.417-8.355h-12.264"/></svg>
